X:195
T:Road to Lisdoonvarna, The
T:All the Ways to Galway
T:All the Way to Galway
R:reel
H:Also played with parts swapped. See also slide#76, polka#23, polka#108
Z:id:hn-reel-195
M:C|
K:D
d2fd cA~A2 | BG~G2 cA~A2 | d2fd cA~A2 | BGAF D4 :|
~A3G AB=cA | GAGF EFG2 | ABAG AB=cA | GE=cE D4 |
DAAG AB=cA | GE~E2 =cEGE | DAAG AB=cA | GE=cE D4 ||
P:variations
|: defd cAAc | BGGB cA~A2 | defd cAAc | BGAG FDD2 :|
DAAG AB=cA | GE~E2 =cEGE | DAAG AB=cA | BGAG FDD2 |
DAAG AB=cA | GE~E2 =cAGE | DAAG AB=cA | BcAG FDD2 ||

